X:1
T:Search Me, O God
T:Text: J. Edwin Orr (1912-1987) Tune: Edward J. Hopkins (1818-1901)
T:10 10 10 10 ELLERS www.hymnary.org/text/search_me_o_god_and_know_my_heart_today
T:Search Me, O God
T:This hymn is in the public domain.  You may freely use this score for personal and congregational worship.  If you reproduce the score, please credit Hymnary.org as the source. 
T:This hymn is in the public domain.  You may freely use this score for personal and congregational worship.  If you reproduce the score, please credit Hymnary.org as the source. 
Z:This hymn is in the public domain.  You may freely use this score for personal and congregational worship.  If you reproduce the score, please credit Hymnary.org as the source.
%%score ( 1 2 ) ( 3 4 )
L:1/8
M:2/2
K:G
V:1 treble nm="Piano" snm="Pno."
V:2 treble 
V:3 bass nm="Piano" snm="Pno."
V:4 bass 
V:1
 [B,D]4 [B,D]2 [B,E]2 | D4 [DG]4 | [CG]2 [CF]2 [CG]2 [CA]2 | [B,B]8 | [DG]4 [DG]2 [DA]2 | %5
w: 3~Lord, take my|life and|make it whol- ly|thine;|fill my poor|
w: 1~Search me, O|God, wnd|know my heart to-|day;|try me, O|
w: 2~I praise thee,|Lord, for|clean- sing me from|sin;|ful- fill thy|
 [EG]4 [GB]4 | [GB]2 A2 [GB]2 [G^c]2 | [Fd]8 | [Dd]4 [DG]2 [DG]2 | [Fc]4 [Ec]4 | [Dc]2 [DA]2 | %11
w: heart with|thy great love di-|vine.|Take all my|will, my|pas- sion,|
w: Sa- vior,|know my thoughts, I|pray.|See if there|be some|wick- ed|
w: Word and|make me pure with-|in.|Fill me with|fire where|once I|
 [DB]2 [Dc]2 | [DB]8 | [B,G]4 [B,A]2 [B,G]2 | [EG]4 [CE]4 | D2 D2 [CE]2 D2 | [B,D]8 |] %17
w: self, and|pride;|I now sur-|ren- der,|Lord in me a-|bide.|
w: way in|me;|cleanse me from|ev- ery|sin and set me|free.|
w: burned with|shame;|grant my de-|sire to|mag- ni- fy thy|name.|
V:2
 x8 | D4 x4 | x8 | x8 | x8 | x8 | x2 G2 x4 | x8 | x8 | x8 | x4 | x4 | x8 | x8 | x8 | C2 C2 x2 C2 | %16
 x8 |] %17
V:3
 [G,,G,]4 [G,,G,]2 [G,,G,]2 | [B,,G,]4 [B,,G,]4 | [A,,D,]2 [A,,D,]2 [A,,E,]2 [A,,F,]2 | [G,,G,]8 | %4
 [G,B,]4 [G,B,]2 [G,B,]2 | [E,B,]4 [E,B,]4 | [A,,^C]2 [A,,C]2 [A,,B,]2 [A,,A,]2 | [D,A,]8 | %8
 [B,,G,]4 B,2 B,2 | [A,C]4 A,4 | [F,A,]2 [F,A,]2 | [D,F,]2 [D,F,]2 | [G,,G,]8 | %13
 [E,G,]4 [E,G,]2 [E,G,]2 | [C,A,]4 [C,G,]4 | [D,F,]2 [D,F,]2 [D,F,]2 [D,F,]2 | [G,,G,]8 |] %17
V:4
 x8 | x8 | x8 | x8 | x8 | x8 | x8 | x8 | x4 B,2 B,2 | x4 G,4 | x4 | x4 | x8 | x8 | x8 | x8 | x8 |] %17

